X: 1
T:The Sporting Pitchfork  "CYMRU"
M:6/8
L:1/8
Q:80
C:Duncan
S:Jig
K:HP
|: | {g}c{e}c{G}c{g}B{e}B{A}B|
{g}c{e}c{G}c{g}ABc|
{g}d{e}d{G}d{gef}ede|  !
{a}ged{g}cde| |
{g}((3fga)f{g}fed|
{g}efe{g}efg|  !
ag{a}e{g}edc|
{g}ed{c}d{g}d2B:| |:
| {gAGAG}A2{g}B{g}cB{d}A|  !
{g}cdc{g}ABc|
{g}dcd{g}fed|
{g}c{d}A{e}A{GAG}A2g| |  !
{g}((3fga)f{g}fed|
{g}efe{g}efg|
ag{a}e{g}edc|  !
{g}ed{c}d{g}d2B:|
